outputs/icons/communication/sync_sharp.svg

<svg xmlns="http://www.w3.org/2000/svg" width="1200" height="1200" fill="none"><g clip-path="url(#a)"><path fill="#000" d="M600 200V50L400 250l200 200V300c165.5 0 300 134.5 300 300 0 50.5-12.5 98.5-35 140l73 73c39-61.5 62-134.5 62-213 0-221-179-400-400-400m0 700c-165.5 0-300-134.5-300-300 0-50.5 12.5-98.5 35-140l-73-73c-39 61.5-62 134.5-62 213 0 221 179 400 400 400v150l200-200-200-200z"/></g><defs><clipPath id="a"><path fill="#fff" d="M0 0h1200v1200H0z"/></clipPath></defs></svg>

<svg width="1200" height="1200" viewBox="0 0 1200 1200" fill="none" xmlns="http://www.w3.org/2000/svg"><g clip-path="url(#clip0_133_19)"><path d="M600 200V50L400 250L600 450V300C765.5 300 900 434.5 900 600C900 650.5 887.5 698.5 865 740L938 813C977 751.5 1000 678.5 1000 600C1000 379 821 200 600 200ZM600 900C434.5 900 300 765.5 300 600C300 549.5 312.5 501.5 335 460L262 387C223 448.5 200 521.5 200 600C200 821 379 1000 600 1000V1150L800 950L600 750V900Z" fill="black"/></g><defs><clipPath id="clip0_133_19"><path width="24" fill="white" d="M0 0H1200V1200H0V0z"/></clipPath></defs></svg>
